X:5619
T:Gallagher's Frolics
M:6/8
L:1/8
R:Jig
K:D maj
|:EDE GFE|BAB dBA|BdB BAB|GFG AFD|EDE GFE|BAB dBA|BAG FAF|GEEE3:|:
e2f gfe|g2a bge|dcd fed|faf fed|e2f gfe|dfe dBA|BAG FAF|GEEE3:|


